img/icons/icon-files-blue.svg

<?xml version="1.0" encoding="UTF-8"?>
<svg width="28px" height="32px" viewBox="0 0 28 32" version="1.1" xmlns="http://www.w3.org/2000/svg" xmlns:xlink="http://www.w3.org/1999/xlink">
    <!-- Generator: Sketch 59.1 (86144) - https://sketch.com -->
    <title>icon-files-blue</title>
    <desc>Created with Sketch.</desc>
    <g id="Page-1" stroke="none" stroke-width="1" fill="none" fill-rule="evenodd">
        <g id="icon-files-blue" fill="#0848B9" fill-rule="nonzero">
            <path d="M2,28 L4,28 L4,30 C4,31.104 4.896,32 6,32 L26,32 C27.104,32 28,31.104 28,30 L28,6 C28,4.896 27.104,4 26,4 L24,4 L24,2 C24,0.896 23.104,0 22,0 L2,0 C0.896,0 0,0.896 0,2 L0,26 C0,27.104 0.896,28 2,28 Z M22,26 L2,26 L2,2 L22,2 L22,26 Z M26,6 L26,30 L6,30 L6,28 L22,28 C23.104,28 24,27.104 24,26 L24,6 L26,6 Z M8,7 C8,7.552 8.448,8 9,8 L19,8 C19.552,8 20,7.552 20,7 C20,6.448 19.552,6 19,6 L9,6 C8.448,6 8,6.448 8,7 Z M5,14 L19,14 C19.552,14 20,13.552 20,13 C20,12.448 19.552,12 19,12 L5,12 C4.448,12 4,12.448 4,13 C4,13.552 4.448,14 5,14 Z M5,18 L19,18 C19.552,18 20,17.552 20,17 C20,16.448 19.552,16 19,16 L5,16 C4.448,16 4,16.448 4,17 C4,17.552 4.448,18 5,18 Z M5,22 L19,22 C19.552,22 20,21.552 20,21 C20,20.448 19.552,20 19,20 L5,20 C4.448,20 4,20.448 4,21 C4,21.552 4.448,22 5,22 Z" id="Shape"></path>
        </g>
    </g>
</svg>

<svg width="28" height="32" xmlns="http://www.w3.org/2000/svg"><path d="M2 28h2v2a2 2 0 002 2h20a2 2 0 002-2V6a2 2 0 00-2-2h-2V2a2 2 0 00-2-2H2a2 2 0 00-2 2v24a2 2 0 002 2zm20-2H2V2h20v24zm4-20v24H6v-2h16a2 2 0 002-2V6h2zM8 7a1 1 0 001 1h10a1 1 0 000-2H9a1 1 0 00-1 1zm-3 7h14a1 1 0 000-2H5a1 1 0 000 2zm0 4h14a1 1 0 000-2H5a1 1 0 000 2zm0 4h14a1 1 0 000-2H5a1 1 0 000 2z" fill="#0848B9"/></svg>
